X:1
T:032 - Cristo em Belém
T:Letra: João C. da Costa
T:Música: Ira David Sankey (1840-1908)
M:9/8
L:1/8
K:F
V:1
CFG | "F"A3A3AB=B | c3c3cdA | "C7"c3-c2 B BAG | "F"A3-A3 CFG | A3A3AB=B | c3c3cdA | "C7"c3-c2 B BAG | "F"F3-F3 || ABc | "Bb"d3d3fed | "F"d3c3cBA | "C7"G3-G2A Bcd | "F"c3A3 ABc |  "Bb"d3d3fed | "F"d3c3cBA | "C7"G3-G2A BAG | "F"F3-F3 |]
w: 1.~Al_ta noi-tees-tão_ pas-to-res De_ Be-lém_ no der_re-dor;_ E os cer-cou de res_plen-do-res Luz_ ce-les_te do_ Se-nhor._ 'No_vas te-nho... dar_vos ve-nho', Dis_seum an_jo com_ dul-çor;_ "Eis_ queé na-doo Bem_A-ma-do, Je_sus Cris_to,o Sal_va-dor."_
w: 2.~Gló_riaa Deus e paz_ ben-di-ta, Eis_ o can_toan-ge_li-cal_ Pa_ra to-daa gen_tea-fli-ta! Tão_ glo-rio_soe tri_un-fal!_
w: 3.~Ver_ Je-sus na man_je-dou-ra, On_de vei_o re_pou-sar,_ Que_rem e-les sem_ de-mo-ra, Pa_raa no_va con_fir-mar._
w: 4.~O_ Se-nhor de quan_toe-xis-te Quis_ pas-to_res pro_cu-rar,_ Pa_ra des-te ber_ço tris-te Su_as no_vas pro_cla-mar._
W: 
W: 
W: 1. Alta noite estão pastores
W: De Belém no derredor;
W: E os cercou de resplendores
W: Luz celeste do Senhor.
W: 
W: (Estribilho)
W: 'Novas tenho... dar-vos venho',
W: Disse um anjo com dulçor;
W: 'Eis que é nado o Bem-Amado,
W: Jesus Cristo, o Salvador.'
W:
W: 2. Glória a Deus e paz bendita,
W: Eis o canto angelical
W: Para toda a gente aflita!
W: Tão glorioso e triunfal!
W: 
W:
W:
W: 3. Ver Jesus na manjedoura,
W: Onde veio repousar,
W: Querem eles sem demora,
W: Para a nova confirmar.
W: 
W: 4. O Senhor de quanto existe 
W: Quis pastores procurar,
W: Para deste berço triste
W: Suas novas proclamar.
W: 
W:





